app/img/contacts-artist/social-block/spotify-icon.svg

<svg width="24" height="24" fill="none" xmlns="http://www.w3.org/2000/svg"><g clip-path="url(#clip0_1_189)"><path d="M12 0C5.4 0 0 5.4 0 12s5.4 12 12 12 12-5.4 12-12S18.66 0 12 0zm5.521 17.34c-.24.359-.66.48-1.021.24-2.82-1.74-6.36-2.101-10.561-1.141-.418.122-.779-.179-.899-.539-.12-.421.18-.78.54-.9 4.56-1.021 8.52-.6 11.64 1.32.42.18.479.659.301 1.02zm1.44-3.3c-.301.42-.841.6-1.262.3-3.239-1.98-8.159-2.58-11.939-1.38-.479.12-1.02-.12-1.14-.6-.12-.48.12-1.021.6-1.141C9.6 9.9 15 10.561 18.72 12.84c.361.181.54.78.241 1.2zm.12-3.36C15.24 8.4 8.82 8.16 5.16 9.301c-.6.179-1.2-.181-1.38-.721-.18-.601.18-1.2.72-1.381 4.26-1.26 11.28-1.02 15.721 1.621.539.3.719 1.02.419 1.56-.299.421-1.02.599-1.559.3z" fill="#fff"/></g><defs><clipPath id="clip0_1_189"><path fill="#fff" d="M0 0h24v24H0z"/></clipPath></defs></svg>

<svg width="24" height="24" viewBox="0 0 24 24" fill="none" xmlns="http://www.w3.org/2000/svg">
<g clip-path="url(#clip0_1_189)">
<path d="M12 0C5.4 0 0 5.4 0 12C0 18.6 5.4 24 12 24C18.6 24 24 18.6 24 12C24 5.4 18.66 0 12 0ZM17.521 17.34C17.281 17.699 16.861 17.82 16.5 17.58C13.68 15.84 10.14 15.479 5.939 16.439C5.521 16.561 5.16 16.26 5.04 15.9C4.92 15.479 5.22 15.12 5.58 15C10.14 13.979 14.1 14.4 17.22 16.32C17.64 16.5 17.699 16.979 17.521 17.34ZM18.961 14.04C18.66 14.46 18.12 14.64 17.699 14.34C14.46 12.36 9.54 11.76 5.76 12.96C5.281 13.08 4.74 12.84 4.62 12.36C4.5 11.88 4.74 11.339 5.22 11.219C9.6 9.9 15 10.561 18.72 12.84C19.081 13.021 19.26 13.62 18.961 14.04ZM19.081 10.68C15.24 8.4 8.82 8.16 5.16 9.301C4.56 9.48 3.96 9.12 3.78 8.58C3.6 7.979 3.96 7.38 4.5 7.199C8.76 5.939 15.78 6.179 20.221 8.82C20.76 9.12 20.94 9.84 20.64 10.38C20.341 10.801 19.62 10.979 19.081 10.68Z" fill="white"/>
</g>
<defs>
<clipPath id="clip0_1_189">
<rect width="24" height="24" fill="white"/>
</clipPath>
</defs>
</svg>
